src/main/resources/icons/SpringBootCloudStreamIcons/icons/springCloudStreamFileSet.svg

<svg xmlns="http://www.w3.org/2000/svg" width="16" height="16" viewBox="0 0 16 16">
  <g fill="none" fill-rule="evenodd">
    <path fill="#9AA7B0" fill-opacity=".8" d="M10,10 L7.5,10 L7.5,10.0102011 C7.10694975,10.0746007 6.75298424,10.4401674 6.48773615,11 L2,11 L2,5 L6,5 L6,1 L10,1 L10,10 Z M12,10 L11,10 L11,3 L12,3 L12,10 Z M6.01645634,13 L3,13 L3,12 L6.15637866,12 C6.08781746,12.3108533 6.0399042,12.6469274 6.01645634,13 Z M14,10 L13,10 L13,5 L14,5 L14,10 Z M6.15637866,15 L5,15 L5,14 L6.01645634,14 C6.0399042,14.3530726 6.08781746,14.6891467 6.15637866,15 Z"/>
    <polygon fill="#9AA7B0" fill-opacity=".8" points="5 1 2 4 5 4"/>
    <path fill="#9AA7B0" d="M14.8,15.9945326 L14.8,16 L8.05,16 L8.05,15.9945326 C7.46364761,15.9087682 7,14.8247071 7,13.5 C7,12.1752929 7.46364761,11.0912318 8.05,11.0054674 L8.05,11 L14.8,11 L14.8,11.0054674 C14.8247893,11.0018416 14.8497979,11 14.875,11 C15.4963203,11 16,12.1192881 16,13.5 C16,14.8807119 15.4963203,16 14.875,16 C14.8497979,16 14.8247893,15.9981584 14.8,15.9945326 Z M14.65,15.2857143 C15.0642136,15.2857143 15.4,14.4862228 15.4,13.5 C15.4,12.5137772 15.0642136,11.7142857 14.65,11.7142857 C14.2357864,11.7142857 13.9,12.5137772 13.9,13.5 C13.9,14.4862228 14.2357864,15.2857143 14.65,15.2857143 Z"/>
  </g>
</svg>

<svg xmlns="http://www.w3.org/2000/svg" width="16" height="16" viewBox="0 0 16 16"><rect id="frame" width="16" height="16" fill="none"/><g fill="#9AA7B0" fill-rule="evenodd"><path fill-opacity=".8" d="M10 10H7.5v.01c-.393.065-.747.43-1.012.99H2V5h4V1h4v9zm2 0h-1V3h1v7zm-5.984 3H3v-1h3.156a6.73 6.73 0 0 0-.14 1zM14 10h-1V5h1v5zm-7.844 5H5v-1h1.016c.024.353.072.69.14 1z"/><path fill-opacity=".8" d="M5 1L2 4h3z"/><path d="M14.8 15.995V16H8.05v-.005C7.464 15.909 7 14.825 7 13.5c0-1.325.464-2.409 1.05-2.495V11h6.75v.005a.518.518 0 0 1 .075-.005C15.496 11 16 12.12 16 13.5s-.504 2.5-1.125 2.5a.518.518 0 0 1-.075-.005zm-.15-.71c.414 0 .75-.799.75-1.785 0-.986-.336-1.786-.75-1.786s-.75.8-.75 1.786.336 1.786.75 1.786z"/></g></svg>
